X: 27
M: C|
L: 1/8
K: Bb
(3def B2 (3cde A2 | (3BAB (3dcB (3AGF (3EDC |
(3def B2 (3cde A2 | B2b2 B2 :|
|: c>B |\
(3DFB (3dfb (3agf (3edc | B2b2 B2 H:|

